X:1
T:Garfirth, 76.76 D
T:Garfirth, 76.76 D
T:Robert Prescott Stewart, 1868
T:Public Domain Courtesy of the Cyber Hymnal™
C:Robert Prescott Stewart, 1868
Z:Public Domain
Z:Courtesy of the Cyber Hymnal™
%%score ( 1 2 ) ( 3 4 )
L:1/8
Q:1/4=110
M:4/4
K:Eb
V:1 treble 
V:2 treble 
V:3 bass 
V:4 bass 
V:1
 [B,E]2 | [EF]2 E2 [EA]2 [EG]2 | [^Fc]4 [=FB]2 [FB]2 | [EB]2 [EG]2 E2 [DF]2 | [EG]6 [FG]2 | %5
 [EG]2 [Ge]2 [^Fd]2 [F=A]2 | [^Fc]4 [GB]2 [_DG]2 | [DF]2 [FB]2 [EB]2 [E=A]2 | B6 [FB]2 | %9
 [EB]2 [EG]2 [=Ec]2 [EG]2 | [=EB]4 [FA]2 [F=A]2 | [FB]2 [Ge]2 d2 z x3 | [DB]6 [FB]2 | %13
 [Ee]2 [EG]2 [EA]2 [EG]2 | [Ec]4 [EF]2 [EF]2 | [DF]2 [FA]2 [EG]2 [DF]2 x | E6 |] %17
V:2
 x2 | x2 E2 x4 | x8 | x4 E2 x2 | x8 | x8 | x8 | x8 | (E2 DC D2) x2 | x8 | x8 | x4 F3 c2 E | x8 | %13
 x8 | x8 | x9 | E6 |] %17
V:3
 [E,G,]2 | [E,A,]2 [E,G,]2 [E,C]2 [E,B,]2 | [E,=A,]4 [D,_A,]2 [D,A,]2 | %3
 [E,G,]2 [E,B,]2 [G,,B,]2 [B,,B,]2 | [E,B,]6 [D,=B,]2 | [C,C]2 [C,C]2 [D,=A,]2 [D,A,]2 | %6
 [G,E]4 [G,D]2 [=E,B,]2 | [F,B,]2 [F,B,]2 [F,C]2 [F,C]2 | [B,,B,]6 [A,D]2 | %9
 [G,E]2 [G,B,]2 [C,G,]2 [C,G,]2 | [F,_D]4 [F,C]2 [E,C]2 | [D,B,]2 [C,C]2 [F,=A,]2 [F,A,]2 x2 | %12
 [B,,B,]6 [D,A,]2 | [E,G,]2 [E,_D]2 [E,C]2 [E,B,]2 | A,4 [A,,C]2 [A,,C]2 | %15
 [B,,B,]2 [B,,C]2 B,3 z A, | [E,G,]6 |] %17
V:4
 x2 | x8 | x8 | x8 | x8 | x8 | x8 | x8 | x8 | x8 | x8 | x10 | x8 | x8 | A,4 x4 | x4 B,,2 B,,2 x | %16
 x6 |] %17

